!!!!SEGMENT: pl-wumfc--r282--003-010_paderewski-ignacy-jan--exercises-3-exercise-10.krn
!!!cenid: 18xx:3205
!!!COM: Paderewski, Ignacy Jan
!!!COM-rismID: pe30029943
!!!CDT: 1860/11/18-1941/06/29
!!!CNT: Polish
!!!GTL: [Exercises 3]
!!!OTL: [Exercise 10]
!!!OMV: 010
!!!PDT:
!!!AGN: Secular; Etude
!!!YEC: Copyright 2022 Narodowy Instytut Fryderyka Chopina (https://polishscores.org)
!!!YEM: License CC-BY-4.0 (https://creativecommons.org/licenses/by/4.0)
!!!SMS-siglum: PL-Wumfc
!!!SMS-shelfmark: R282
!!!SMS-shelfwork: 003-010 G
!!!SMS-variant:
!!!SMS-altvar:
!!!NIFC-rismSourceID: 1001158933
!!!NIFC-rismChildID: 1001158933
!!!NIFC-islandoraID: pl-wumfc:419
!!!URL-pdf-islandora: https://repozytorium.nifc.pl/islandora/object/pl-wumfc%3A419/datastream/PDF/view
!!!URL-scan: https://polish.musicsources.pl/pl/lokalizacje/galeria/rekopisy/4702 @EN{Scan on Polish Music Sources Website} @PL{Skany w portalu Dziedzictwo Muzyki Polskiej w otwartym dostępie}
!!!IIIF:
!!!ONB-nifc: UWAGA: druga grupa ćwiczeń od skanu 0011, prawa strona, 3 system. Nr 003 i 004 nienumerowane – skan 0012, lewa strona. Nr 010 nienumerowany – skan 0014, 3 pierwsze systemy
!!!AIN: 2 piano
!!!key: F
**kern	**kern
*part2	*part1
*staff2	*staff1
*I"[Pianoforte]	*I"[Pianoforte]
*Ipiano	*Ipiano
*ICklav	*ICklav
*IGsolo	*IGsolo
*clefF4	*clefG2
!!LO:MO:mod
!! *M4/4	*M4/4
!!LO:MO:end
*k[]	*k[]
*F:	*F:
=1	=1
*^	*^
4r	2ryyyy	2a/	8r
.	.	.	8f\L
4r	.	.	8e\
.	.	.	8d\J
8r	2ryyyy	2ee/	2c\
8B/L	.	.	.
8A/	.	.	.
8G/J	.	.	.
=2	=2	=2	=2
2F/	8r	2dd/	2d\
.	8D\L	.	.
.	8C\	.	.
.	8BB\J	.	.
2A/	8AA\	2cc/	2e\
.	8AA\L	.	.
.	8C\	.	.
.	8D\J	.	.
=3	=3	=3	=3
8G#X/L	2E\	2b/	[<2e\
8E/	.	.	.
8F#X/	.	.	.
8G#/J	.	.	.
2A/	2AA\	2cc/	8e\]
.	.	.	8c\L
.	.	.	8d\
.	.	.	8e\J
=4	=4	=4	=4
2A;/	2D\	2a;/	2f\
[2G/	2GG\	2b/	8g\L
.	.	.	8a\
.	.	.	8g\
.	.	.	8f\J
=5	=5	=5	=5
8G/L]	[2C\	2cc/	2e\
8A/	.	.	.
8G/	.	.	.
8F/J	.	.	.
2E/	8C\L]	2gg/	2c\
.	8D\	.	.
.	8C\	.	.
.	8BB\J	.	.
=6	=6	=6	=6
2F/	8AA\L	2ff/	4c\
.	8BB\	.	.
.	8C\	.	4a\
.	8D\J	.	.
8G/L	2E\	2ee/	2g\
8A/	.	.	.
8B/	.	.	.
8c/J	.	.	.
!!LO:LB:g=original
=7	=7	=7	=7
2d/	2F\	2dd/	8f\L
.	.	.	8g\
.	.	.	8a\
.	.	.	8b\J
2c/	2C\	2ee/	8cc\L
.	.	.	8dd\
.	.	.	8cc\
.	.	.	8b-X\J
=8	=8	=8	=8
!	!LO:SIC:s=2F\:v	!	!
2c;/	2F;\	2ff;/	2a\
2c/	8r	2ee/	2g\
.	8C\L	.	.
.	8E\	.	.
.	8F\J	.	.
=9	=9	=9	=9
8B/L	2G\	2dd/	4g\
8G/	.	.	.
8A/	.	.	[4f\
8B/J	.	.	.
4c/	2C\	2cc/	8f\]
.	.	.	8e\L
4B-X/	.	.	8f\
.	.	.	8g\J
=10	=10	=10	=10
2A/	1F	2dd/	8a\L
.	.	.	8b-X\
.	.	.	8a\
.	.	.	8g\J
8d/L	.	2a/	2f\
8e/	.	.	.
8d/	.	.	.
8c/J	.	.	.
=11	=11	=11	=11
2B/	8G\L	2b/	2f\
.	8A\	.	.
.	8G\	.	.
.	8F\J	.	.
2G/	8E\L	2cc/	2g\
.	8F\	.	.
.	8E\	.	.
.	8C\J	.	.
=12	=12	=12	=12
!	!LO:SIC:s=2GG\:v	!	!
2B;/	2GG;\	2dd;/	2g\
4c/	4C\	2cc/	8e\
.	.	.	(>8c\L
4r	4r	.	8e\
.	.	.	8f\J)
!!LO:LB:g=original
=13	=13	=13	=13
8r	2ryyyy	2b/	2f\
8B/L	.	.	.
8d/	.	.	.
8e/J	.	.	.
2f/	8r	2dd/	2a\
.	8D\L	.	.
.	8F\	.	.
.	8G\J	.	.
=14	=14	=14	=14
2e/	8A\L	2cc/	2a\
.	8AA\	.	.
.	8BB\	.	.
.	8C\J	.	.
[2d/	2D\	2a/	8f\L
.	.	.	8a\
.	.	.	8g\
.	.	.	8f\J
=15	=15	=15	=15
8d/L]	2AA\	2cc/	2e\
8c/	.	.	.
8B/	.	.	.
8A/J	.	.	.
2G#X/	8E\L	2b/	4e\
.	8F\	.	.
.	8E\	.	4d\
.	8EE\J	.	.
=16	=16	=16	=16
!	!LO:SIC:s=1AA:v	!	!
1A;	1AA;	1a;	1c
*v	*v	*	*
*	*v	*v
==	==
*-	*-
!!!system-decoration: [(s1,s2)]
!!!RDF**kern: > = above
!!!RDF**kern: < = below
!!!filter-modern: sic -sq | shed -e "s/LO:DY:(a|b|rj)/LO:dy:$1/L" | shed -e "s/TX(.*):t=P:/tx$1:t=P:/LG" | modori -m | autostem -r | shed -e "s/yy//" | shed -k -e "s/[<>]//g" | shed -k -e "s/\(y([^y])/($1/" | shed -e "s/-//B" | shed -k -e "s/r[a-gA-G]+/r/D"
!!!ENC: Filip Voros
!!!END: 2021-11-13
!!!EED: Marta Lawrence
!!!EEV: 2021-11-15
!!!EED-modern: Antoni Szymański
!!!END-modern: 2022-09-05
